app/icons/svg/ic_zoom_in.svg

<?xml version="1.0" encoding="UTF-8"?>
<svg width="24px" height="24px" viewBox="0 0 24 24" version="1.1" xmlns="http://www.w3.org/2000/svg" xmlns:xlink="http://www.w3.org/1999/xlink">
    <title>Icons/IXT/24dp/ic_zoom_in</title>
    <g id="Icons/IXT/24dp/ic_zoom_in" stroke="none" stroke-width="1" fill="none" fill-rule="evenodd">
        <g id="ic_zoom_in">
            <rect id="Container" x="0" y="0" width="24" height="24"></rect>
            <path d="M11,2 C15.9705627,2 20,6.02943725 20,11 C20,13.124779 19.2636898,15.0775836 18.0323074,16.6171757 L21.7071068,20.2928932 L20.2928932,21.7071068 L16.6171757,18.0323074 C15.0775836,19.2636898 13.124779,20 11,20 C6.02943725,20 2,15.9705627 2,11 C2,6.02943725 6.02943725,2 11,2 Z M11,4 C7.13400675,4 4,7.13400675 4,11 C4,14.8659932 7.13400675,18 11,18 C14.8659932,18 18,14.8659932 18,11 C18,7.13400675 14.8659932,4 11,4 Z M12,8 L12,10 L14,10 L14,12 L12,12 L12,14 L10,14 L10,12 L8,12 L8,10 L10,10 L10,8 L12,8 Z" id="Combined-Shape" fill="#454545"></path>
        </g>
    </g>
</svg>

<svg xmlns="http://www.w3.org/2000/svg" viewBox="0 0 24 24"><g fill="none" fill-rule="evenodd"><path d="M0 0h24v24H0z"/><path fill="#454545" d="M11 2a9 9 0 017.032 14.617l3.675 3.676-1.414 1.414-3.676-3.675A9 9 0 1111 2zm0 2a7 7 0 100 14 7 7 0 000-14zm1 4v2h2v2h-2v2h-2v-2H8v-2h2V8h2z"/></g></svg>
